X:1014
T:Eddie Moloney's
S:CD, Bua, Down the Green Fields (2011)
Z:Nigel Gatherer
L:1/8
M:4/4
K:Em
EF | GEEE cABG | ABGE A2 EF | GEEE cABG | ABGE D2 :|
GA | Bdde dBGB | AcBG AGEG | Bdde dBGB AAGE D2
GA | Bdde dBGB | AcBG AGEG | Bdde gedB | ABGE D2 |]
<end>
<start>
